icons/treated_water.svg

<svg width="48" height="48" viewBox="0 0 48 48" fill="none" xmlns="http://www.w3.org/2000/svg">
<path fill-rule="evenodd" clip-rule="evenodd" d="M8 36.2023C8 38.0662 9.27477 39.6323 11 40.0763V41.9999H13V40.2024H29V41.9999H31V40.0763C32.7252 39.6323 34 38.0662 34 36.2023V33.0119H35.5059C36.0582 33.0119 36.5059 33.4596 36.5059 34.0119V35.7084H41V34.5178C41 31.5807 38.8896 29.1365 36.1025 28.6189H39.2024V26.6189H34.7083V28.5178H33.2813C33.0323 28.1789 32.7272 27.8837 32.3797 27.6461C31.7835 27.2384 31.0625 27 30.2857 27C30.2857 27 30.969 26.2871 31.7494 25.1892C32.7886 23.7273 34 21.5828 34 19.5296V5.64258H8V19.5296C8 21.5828 9.2114 23.7273 10.2506 25.1892C11.031 26.2871 11.7143 27 11.7143 27C10.9375 27 10.2165 27.2384 9.62029 27.6461C8.64201 28.3151 8 29.4397 8 30.7143V36.2023ZM25.5984 29L26 28.581V25.5H24V29H22V25.5H20V29H18V25.5H16V28.581L16.4016 29H11.7143C10.7675 29 10 29.7675 10 30.7143V32.1894C10.2142 32.3136 10.4284 32.4238 10.6426 32.5198C12.7723 33.4748 14.9019 33.0396 17.0316 31.2142C19.8279 33.6111 22.6242 33.6111 25.4205 31.2142C27.5502 33.0403 29.6798 33.4746 31.8095 32.5195C31.873 32.4911 31.9365 32.4613 32 32.4304V30.7143C32 29.7675 31.2325 29 30.2857 29H25.5984ZM32 19.5296C32 20.7179 31.3509 22.1674 30.481 23.5H11.519C10.6491 22.1674 10 20.7179 10 19.5296V16.7161C18.3457 18.3157 23.5145 18.3383 32 16.6236V19.5296ZM32 14.5824C23.4163 16.3505 18.4563 16.3295 10 14.679V7.64258H32V14.5824ZM29.8262 38.2023C30.9231 38.1933 31.8095 37.3014 31.8095 36.2024V34.6602C31.1028 34.8886 30.3709 35.0117 29.6153 35.0118C28.1203 35.0121 26.7177 34.5308 25.4204 33.7038C24.1233 34.5305 22.7209 35.0119 21.2261 35.0119C19.7312 35.0119 18.3287 34.5304 17.0316 33.7037C15.7345 34.5304 14.332 35.0119 12.8371 35.0119C12.0815 35.0119 11.3494 34.8888 10.6426 34.6604V36.2024C10.6426 37.3014 11.529 38.1933 12.6259 38.2023H29.8262Z" fill="black"/>
<path d="M39.5 42C40.3284 42 41 41.186 41 40.1818C41 38.5909 39.5 37 39.5 37C39.5 37 38 38.5909 38 40.1818C38 41.186 38.6716 42 39.5 42Z" fill="black"/>
</svg>

<svg
  xmlns="http://www.w3.org/2000/svg"
  width="24"
  height="24"
  viewBox="0 0 24 24"
  fill="none"
  stroke="currentColor"
  stroke-width="2"
  stroke-linecap="round"
  stroke-linejoin="round"
>
  <path
    fill-rule="evenodd"
    d="M8 36.202a4 4 0 0 0 3 3.874V42h2v-1.798h16V42h2v-1.924c1.725-.444 3-2.01 3-3.874v-3.19h1.506a1 1 0 0 1 1 1v1.696H41v-1.19a6 6 0 0 0-4.898-5.9h3.1v-2h-4.494v1.9h-1.427a3.7 3.7 0 0 0-.901-.872A3.7 3.7 0 0 0 30.286 27s.683-.713 1.463-1.81C32.79 23.726 34 21.582 34 19.53V5.643H8V19.53c0 2.053 1.211 4.197 2.25 5.66A18 18 0 0 0 11.715 27 3.71 3.71 0 0 0 8 30.714zM25.598 29l.402-.419V25.5h-2V29h-2v-3.5h-2V29h-2v-3.5h-2v3.081l.402.419h-4.688c-.947 0-1.714.767-1.714 1.714v1.475q.32.188.643.33 3.194 1.433 6.389-1.305 4.194 3.596 8.389 0 3.194 2.738 6.389 1.306l.19-.09v-1.716c0-.947-.767-1.714-1.714-1.714zM32 19.53c0 1.188-.65 2.637-1.519 3.97H11.519C10.649 22.167 10 20.718 10 19.53v-2.814c8.346 1.6 13.515 1.622 22-.092zm0-4.948c-8.584 1.768-13.544 1.747-22 .097V7.643h22zm-2.174 23.62a2 2 0 0 0 1.983-2V34.66a7.1 7.1 0 0 1-2.194.352c-1.495 0-2.897-.481-4.195-1.308-1.297.827-2.7 1.308-4.194 1.308-1.495 0-2.897-.482-4.194-1.308-1.297.826-2.7 1.308-4.195 1.308a7.1 7.1 0 0 1-2.194-.352v1.542a2 2 0 0 0 1.983 2z"
    clip-rule="evenodd"
  />
  <path d="M39.5 42c.828 0 1.5-.814 1.5-1.818C41 38.59 39.5 37 39.5 37S38 38.59 38 40.182c0 1.004.672 1.818 1.5 1.818" />
</svg>
